src/resources/theme/white/ui-dark-plain-monochrom-state-sync.svg

<?xml version="1.0" encoding="UTF-8" standalone="no"?>
<svg
   width="512"
   height="512"
   viewBox="0 0 32 32"
   fill="none"
   version="1.1"
   id="svg13"
   sodipodi:docname="ui-dark-plain-monochrom-state-sync.svg"
   inkscape:version="1.1.2 (0a00cf5339, 2022-02-04)"
   xmlns:inkscape="http://www.inkscape.org/namespaces/inkscape"
   xmlns:sodipodi="http://sodipodi.sourceforge.net/DTD/sodipodi-0.dtd"
   xmlns="http://www.w3.org/2000/svg"
   xmlns:svg="http://www.w3.org/2000/svg">
  <sodipodi:namedview
     id="namedview15"
     pagecolor="#ffffff"
     bordercolor="#666666"
     borderopacity="1.0"
     inkscape:pageshadow="2"
     inkscape:pageopacity="0.0"
     inkscape:pagecheckerboard="true"
     showgrid="false"
     inkscape:zoom="1.4277344"
     inkscape:cx="251.09713"
     inkscape:cy="256"
     inkscape:window-width="1920"
     inkscape:window-height="1029"
     inkscape:window-x="1920"
     inkscape:window-y="25"
     inkscape:window-maximized="1"
     inkscape:current-layer="svg13" />
  <path
     fill-rule="evenodd"
     clip-rule="evenodd"
     d="m 18,15 c 4.6939,0 8.5,3.8051 8.5,8.4995 0,4.6939 -3.8061,8.499 -8.5,8.499 -4.6939,0 -8.5,-3.8051 -8.5,-8.499 C 9.5,18.8051 13.3061,15 18,15 Z m -1.9293,8.5627 -1.3519,0.2231 -1.9475,0.3431 0.2975,3.3393 0.6914,-0.9009 c 1.0162,1.3807 2.617,2.1974 4.333,2.1974 0.3116,0 0.6259,-0.0278 0.935,-0.0823 1.0953,-0.1927 2.0884,-0.7118 2.8731,-1.4991 0.7658,-0.7695 1.2781,-1.7375 1.4803,-2.7987 l 0.0513,-0.2698 -2.1277,0.375 -0.0383,0.1006 c -0.4253,1.1105 -1.4158,1.9282 -2.5834,2.1345 -0.1954,0.0346 -0.3949,0.0519 -0.5909,0.0519 -1.2875,0 -2.4681,-0.7391 -3.038,-1.8915 z M 18.0965,18 c -0.3127,0 -0.6275,0.0283 -0.9376,0.0828 -2.201,0.3876 -3.9527,2.1272 -4.3591,4.3277 l -0.0498,0.2682 2.1225,-0.3751 0.0377,-0.1011 c 0.4211,-1.1267 1.4148,-1.9559 2.5944,-2.1633 0.1949,-0.0346 0.3939,-0.0524 0.5909,-0.0524 1.2948,0 2.4786,0.7443 3.0454,1.9062 l -1.0235,1.3315 3.3126,-0.5794 v -10e-4 l 0.0068,-5e-4 -0.3175,-3.3231 -0.683,0.8868 C 21.4222,18.8208 19.8188,18 18.0965,18 Z"
     fill="#ffffff"
     id="path4" />
  <defs
     id="defs11">
    <clipPath
       id="clip0">
      <rect
         width="32"
         height="32"
         fill="white"
         id="rect8" />
    </clipPath>
  </defs>
</svg>

<svg width="512" height="512" viewBox="0 0 32 32" fill="none" xmlns="http://www.w3.org/2000/svg">
<g clip-path="url(#clip0)">
<path fill-rule="evenodd" clip-rule="evenodd" d="M29.4355 12.415C29.2175 12.415 29.0075 12.446 28.8055 12.498C28.5515 9.994 26.4905 8.042 23.9855 8.042C23.9595 8.042 23.9355 8.044 23.9115 8.044C23.8365 5.567 21.8605 3.582 19.4295 3.582C19.2475 3.582 19.0685 3.595 18.8915 3.616C18.4515 1.548 16.6585 0 14.5125 0C12.7495 0 11.2265 1.044 10.4935 2.563C10.0755 2.222 9.54851 2.018 8.97351 2.018C7.62151 2.018 6.52551 3.144 6.52551 4.532C6.52551 5.073 6.69351 5.573 6.97651 5.983C6.01451 6.601 5.27851 7.556 4.92551 8.687C4.78051 8.673 4.63351 8.665 4.48451 8.665C2.00751 8.665 -0.000488281 10.727 -0.000488281 13.27C-0.000488281 15.814 2.00751 18 4.48451 18H9.07251C10.9245 15.006 14.2275 13 17.9995 13C21.7715 13 25.0755 15.006 26.9275 18H29.4355C30.8515 18 31.9995 16.503 31.9995 15.049C31.9995 13.594 30.8515 12.415 29.4355 12.415Z" fill="white"/>
<path fill-rule="evenodd" clip-rule="evenodd" d="M18 15C22.6939 15 26.5 18.8051 26.5 23.4995C26.5 28.1934 22.6939 31.9985 18 31.9985C13.3061 31.9985 9.5 28.1934 9.5 23.4995C9.5 18.8051 13.3061 15 18 15ZM16.0707 23.5627L14.7188 23.7858L12.7713 24.1289L13.0688 27.4682L13.7602 26.5673C14.7764 27.948 16.3772 28.7647 18.0932 28.7647C18.4048 28.7647 18.7191 28.7369 19.0282 28.6824C20.1235 28.4897 21.1166 27.9706 21.9013 27.1833C22.6671 26.4138 23.1794 25.4458 23.3816 24.3846L23.4329 24.1148L21.3052 24.4898L21.2669 24.5904C20.8416 25.7009 19.8511 26.5186 18.6835 26.7249C18.4881 26.7595 18.2886 26.7768 18.0926 26.7768C16.8051 26.7768 15.6245 26.0377 15.0546 24.8853L16.0707 23.5627ZM18.0965 18C17.7838 18 17.469 18.0283 17.1589 18.0828C14.9579 18.4704 13.2062 20.21 12.7998 22.4105L12.75 22.6787L14.8725 22.3036L14.9102 22.2025C15.3313 21.0758 16.325 20.2466 17.5046 20.0392C17.6995 20.0046 17.8985 19.9868 18.0955 19.9868C19.3903 19.9868 20.5741 20.7311 21.1409 21.893L20.1174 23.2245L23.43 22.6451V22.6441L23.4368 22.6436L23.1193 19.3205L22.4363 20.2073C21.4222 18.8208 19.8188 18 18.0965 18Z" fill="white"/>
</g>
<defs>
<clipPath id="clip0">
<rect width="32" height="32" fill="white"/>
</clipPath>
</defs>
</svg>
